src/img/mail-icon.svg

<svg width="20" height="20" viewBox="0 0 20 20" fill="none" xmlns="http://www.w3.org/2000/svg">
<path d="M16.4286 14.8491C16.4286 14.9914 16.303 15.117 16.1607 15.117H3.83929C3.69699 15.117 3.57143 14.9914 3.57143 14.8491V8.42057C3.74721 8.62146 3.93973 8.80561 4.149 8.97302C5.34598 9.89378 6.55134 10.8313 7.71484 11.8023C8.34263 12.3296 9.12109 12.9741 9.99163 12.9741H10H10.0084C10.8789 12.9741 11.6574 12.3296 12.2852 11.8023C13.4487 10.8313 14.654 9.89378 15.851 8.97302C16.0603 8.80561 16.2528 8.62146 16.4286 8.42057V14.8491ZM16.4286 6.05171C16.4286 6.7632 15.7422 7.69233 15.1981 8.11923C14.0765 8.99813 12.9548 9.88541 11.8415 10.7727C11.3979 11.1326 10.5943 11.9027 10.0084 11.9027H10H9.99163C9.40569 11.9027 8.60212 11.1326 8.15848 10.7727C7.0452 9.88541 5.92355 8.99813 4.8019 8.11923C4.04855 7.52492 3.57143 6.69624 3.57143 5.742C3.57143 5.5997 3.69699 5.47414 3.83929 5.47414H16.1607C16.4788 5.47414 16.4286 5.84244 16.4286 6.05171ZM17.5 5.742C17.5 5.00539 16.8973 4.40271 16.1607 4.40271H3.83929C3.10268 4.40271 2.5 5.00539 2.5 5.742V14.8491C2.5 15.5857 3.10268 16.1884 3.83929 16.1884H16.1607C16.8973 16.1884 17.5 15.5857 17.5 14.8491V5.742Z" fill="#3E9CDC"/>
</svg>

<svg xmlns="http://www.w3.org/2000/svg" width="20" height="20" fill="none" viewBox="0 0 20 20"><path fill="#3e9cdc" d="M16.429 14.85a.275.275 0 0 1-.268.267H3.839a.275.275 0 0 1-.268-.268V8.421q.264.3.578.552c1.197.92 2.402 1.858 3.566 2.83.628.527 1.406 1.171 2.277 1.171h.016c.87 0 1.65-.644 2.277-1.172a115 115 0 0 1 3.566-2.829q.315-.251.578-.552zm0-8.798c0 .711-.687 1.64-1.23 2.067a520 520 0 0 0-3.357 2.654c-.444.36-1.248 1.13-1.834 1.13h-.016c-.586 0-1.39-.77-1.834-1.13a518 518 0 0 0-3.356-2.654c-.753-.594-1.23-1.423-1.23-2.377 0-.142.125-.268.267-.268h12.322c.318 0 .268.368.268.578m1.071-.31c0-.737-.603-1.34-1.34-1.34H3.84c-.737 0-1.34.603-1.34 1.34v9.107c0 .737.603 1.34 1.34 1.34h12.32c.737 0 1.34-.603 1.34-1.34z"/></svg>
